X:1
T:Quem dicunt homines
T:Adrian Willaert (c1490-1562)
T:From Sir John Hawkins' History of Music
T:Quem dicunt homines
T:Motet
C:Adrian Willaert (c1490-1562)
Z:From Sir John Hawkins'
Z:History of Music
%%score [ 1 2 3 4 ]
L:1/8
M:2/2
K:C
V:1 alto1 nm="P1"
V:2 alto nm="P2"
V:3 tenor transpose=-12 nm="P3"
V:4 bass nm="P4"
V:1
 G8 |[M:2/2][K:treble] z8 | z8 | G4 G2 G2 | A2 B2 G4- | G2 G2 c3 B | A2 G2 A2 G2 | E8 | z4 z2 G2 | %9
w: |||Quem di- cunt|ho- mi- nes|_ es- se fi-|li- um ho- mi-|nis,|es-|
 c3 B A3 G | (F2 E4) D2 | E4 z2 E2 | E2 E2 E4- | E4 D4 | G3 F ED d2- | dc c4 B2 | c8 | z8 | z8 | %19
w: se fi- li- um|ho- * mi-|nis res-|pon- dens Pe-|* trus|dix- * * * *||it:|||
 z2 c4 c2 | B2 A2 c3 B | G2 A2 B2 A2- | A2 G4 ^F2 | G4 z4 | z2 G2 G2 G2 | D2 F4 ED | E8- | %27
w: "Tu es|Christ- us Fi- li-|us De- i vi-||vi."|Et a- it|Je- * * *|sus:|
 E4 z2 E2 | F4 G4 | F4 z2 G2 | A3 B c4 | A2 B2 c4- | c2 BA B4- | B4 z2 G2- | G2 G2 G4 | G2 G2 A4 | %36
w: _ "Be-|a- tus|es, be-|a- tus es|Si- mon Pe-|* * * tre|_ qui-|* a ca-|ro et san-|
 G4 D2 G2- | GF G2 D2 G2- | G2 ^F2 G4 | z8 | z8 | z2 G2 G3 F | E2 CD EF G2- | GE G4 (FE) | D4 E4 | %45
w: guis, san- *||* * guis|||non re- ve-|la- * * * * *|* * * vit _|ti- bi|
 z8 | z2 C2 G3 A | B2 A2 c4 | B2 A4 GF | ED G4 ^F2 | G8 | z8 | z4 z2 D2 | E2 C2 D2 F2- | FEDC D4 | %55
w: |sed Pa- ter|me- us qui|est in Cae- *||lis||et|E- go di- *|* * * co- ti-|
 C4 z4 | z8 | z8 | z2 c2 c2 c2 | A2 B2 c4 | z2 c4 B2 | G2 (c3 B) A2- | AGFE F4 | E3 F G2 A2 | %64
w: bi|||qui- a tu|es Pe- trus|et su-|per hanc _ Pe-|||
 F4 E4 | z8 | z2 E2 G2 A2 | B2 c4 BA | G2 FE D2 E2- | E2 DC D4 | C4 z4 | z2 G2 c4- | c2 B2 A2 GF | %73
w: * tram||ae- di- fi-|ca- * * *|||bo|ec- cle-|* si- am _ _|
 EFGE ^F2 G2- | G2 ^F2 G4 | z2 E2 F2 D2 | E4 z2 E2 | F2 D2 E2 G2 | A2 B2 cBcd | e2 d3 c c2- | %80
w: me- * * * * *|* * am."|Al- le lu-|ia, Al-|le- lu- ia, Al-|le- lu- ia, _ _ _|_ Al- le- lu-|
 c2 B2 c4- | c8 |] %82
w: * * ia.|_|
V:2
 C8 |[M:2/2][K:treble] z8 | z8 | z8 | z8 | C4 C2 C2 | D2 E2 C2 B,A, | G,2 G,2 C3 B, | %8
w: |||||Quem di- cunt|ho- mi- nes _ _|_ es- se fi-|
 A,2 G,2 C3 D | E4 C2 D2- | D2 G,2 A,4 | B,4 z2 B,2 | C2 B,2 C2 B,C | B,2 G,2 z2 G2- | %14
w: li- um ho- *||* * mi-|nis res-|pon- dens Pe- * *|* trus dix-|
 GFED E2 G2- | G2 ^F2 G4- | G4 z2 G2- | G2 G2 F4 | E4 G4- | G2 F2 E2 G2- | G2 F2 E4- | E4 D4 | %22
w: |* * it:|_ "Tu-|* es Christ-|us Fi-|* li- us De-|* i vi-|* vi."|
 z2 D2 D2 C2 | B,3 A,/G,/ B,2 A,2- | A,G,F,E, G,3 A, | B,2 C4 B,2 | C8 | z2 C2 (C3 B,) | %28
w: Et a- it|Je- * * * *|||sus:|"Be- a- *|
 (C2 D2) E4 | z4 E4 | C4 A,2 A2- | AG G4 ^F2 | G4 z2 D2 | E2 D2 (B,A,B,C) | D2 G,2 B,3 C | %35
w: tus _ es|Si-|mon Pe- *||tre qui-|* a ca- * * *|ro et _ san-|
 D2 E2- E2 DC | D4- DCB,A, | G,2 G3 FED | C4 z2 D2 | E3 F G2 C2 | E2 DC D2 C2 | D4 C4 | %42
w: |||guis non|re- ve- la- *|* * * * vit|ti- bi|
 z2 G,2 C2 D2 | E4 D4 | z2 G,2 C3 D | EF G3 FDE | F2 E3 DB,C | D3 C A,4 | z2 A,2 F,2 G,2- | %49
w: sed Pa- ter|me- us|qui est in|_ Cae- * * * *|* lis, in Cae- *|* * lis,|in Cae- *|
 G,A,B,C D4 | z2 D2 E4 | C2 D4 G,2- | G,2 C4 B,2 | C4 z4 | z4 z2 G2 | G2 G2 E4 | F4 E3 F | %57
w: * * * * lis|et E-|go di- co|_ ti- *|bi|qui-|a tu es|Pe- * *|
 GE A4 G2- | GFED C4 | z2 G2 G2 G2 | E4 F4 | E4 z2 C2 | C2 C2 (A,2 B,2) | C3 D EF E2- | E2 D2 E4 | %65
w: |* * * * trus|et su- per|hanc Pe-|tram set|su- per hanc _|Pe- * * * *|* * tram|
 z2 E2 G2 G2 | G4 E4 | E4 E4- | E2 DC B,2 C2- | C2 B,A, B,2 G,2 | G3 F E2 D2 | EF G4 ^F2 | G4 E4 | %73
w: ae- di- fi-|ca- bo|ec- cle-|* si- am me- *||||* am."|
 z8 | z4 z2 C2 | C2 C2 D3 C/B,/ | A,G, C2 C2 C2 | D3 C/B,/ A,2 G,2 | z2 G2 A2 F2 | G4 E2 F2 | %80
w: |Al-|le- lu- ia, _ _|_ _ Al- le- lu-|ia, _ _ _ _|Al- le- lu-|ia, Al- le-|
 G6 A2- | A2 GF E4 |] %82
w: lu- *|* * * ia.|
V:3
 G,8 |[M:2/2][K:treble-8] G4 G2 G2 | A2 B2 G4- | G2 G2 c3 B | A2 G2 c2 B2 | e3 d cB(AG) | %6
w: |Quem di- cunt|ho- mi- nes|_ es- se fi-|li- um ho- *|* * * * mi- *|
 (F2 E2) z2 G2 | c3 B A2 G2 | F2 G2 E2 e2- | ed c3 B A2 | B2 c4 (BA) | ^G8 | z2 G2 A2 G2 | %13
w: nes, _ es-|se fi- li- um|ho- mi- nis ho-||* * mi- *|nis|re- spon- dens|
 G2 c4 B2 | c2 e4 d2 | e2 c2 d4 | c4 z4 | z8 | z2 c4 c2 | B2 A2 c3 d | e2 A3 GAG/F/ | %21
w: Pe- * *||* trus dix-|it:||"Tu- es|Christ- us Fi- li-|us De- * * * *|
 E2 A2 D2 d2- | dc B2 A4 | z2 d2 d2 d2 | e4 E3 F | G2 A2 F4 | z2 G2 A2 G2 | (c3 B) A2 G2 | %28
w: * * i- vi-|* * * vi."|Et a- it|Je- * *|* * sus:|"Be- a- tus|es _ Si- mon|
 F4 E2 e2- | edcB A2 c2- | cBAG FGAB | cA d4 c2 | d8 | z2 d2 e2 d2 | B2 d3 cBA | G2 c4 BA | B8- | %37
w: Pe- tre, Pe-||||tre|qui- * a|ca- ro _ _ _|et san- * *|guis|
 B8 | z2 c2 c2 B2 | A2 G2 c4 | B4 z4 | z4 z2 c2 | c3 B A2 G2 | c4 B4 | z8 | z4 G4 | c3 d e4 | %47
w: _|non re- ve-|la- vit ti-|bi,|non|re- ve- la- vit|ti- bi||sed|Pa- ter me-|
 d6 c2 | d3 c AB c2- | cB G2 A4 | G4 z4 | z8 | z2 G2 A2 F2 | G3 A Bc d2- | d2 c4 B2 | c4 z4 | %56
w: us qui|est in Cae- * *||is||et E- go|di- co ti- * *||bi|
 z4 z2 c2 | c2 c2 A2 B2 | c4 z4 | z4 z2 c2 | c2 c2 (A2 B2) | c3 B AG F2- | FEDC D4 | C4 z4 | %64
w: qui-|a tu es Pe-|trus|et|su- per hanc _|Pe- * * * *||tram|
 z4 z2 c2 | c2 c2 dcBA | B2 c4 BA | (G2 A4) GF | E2 F2 G4 | z8 | z8 | z8 | z2 G2 c4- | %73
w: ae-|di- fi- ca- * * *|bo ec- * *|cle- * si- am|me- * am||||ec- cle-|
 c2 B2 A2 G2 | A4 G4 | z2 G2 A2 B2 | c4 z2 G2 | A2 B2 cBcd | e2 d3 c c2- | c2 B2 c2 c2 | d3 d c4- | %81
w: * si- am me-|* am."|Al- le- lu-|ia, Al-|le- lu- ia, _ _ _|_ Al- le- lu-|* * ia, Al-|le- lu- ia.|
 c8 |] %82
w: _|
V:4
 C,8 |[M:2/2] z8 | z8 | z8 | z8 | z8 | z8 | C,4 C,2 C,2 | D,2 E,2 C,4 | z2 C,2 F,3 E, | %10
w: |||||||Quem di- cunt|ho- mi- nes|es- se fi-|
 D,2 C,2 F,2 F,2 | E,8 | z2 E,2 C,2 C,2 | E,4 G,4 | C,2 C4 B,2 | A,4 G,4 | z2 C4 C2 | %17
w: li- um ho- mi-|nis|res- pon- dens|Pe- *|trus dix- *|* it:|"Tu es|
 B,2 G,2 A,2 B,2 | C4 C,3 D, | (E,2 F,2) C,4 | z8 | z8 | z8 | G,4 G,2 F,2 | E,4 C,2 G,2- | %25
w: Christ- us Fi- li-|us De- i|vi- * vi."||||Et a- it|Je- * *|
 G,2 F,E, D,4 | C,8- | C,8 | z4 z2 G,2 | A,3 B, C4 | A,2 C3 B,A,G, | F,2 G,2 A,4 | G,8- | G,8- | %34
w: |sus:|_|"Be-|a- tus es|Si- * * * *|* mon Pe-|tre|_|
 G,8 | z8 | z2 G,4 G,2 | G,4 G,2 G,2 | A,4 G,4 | z2 C,2 E,2 F,2 | G,F,G,A, B,2 C2- | C2 B,2 C4 | %42
w: ||qui- a|ca- ro et|san- guis|non re- ve-|la- * * * * *|* vit ti-|
 C,4 z4 | z2 C,2 G,3 A, | B,4 A,4 | C4 C2 B,2 | A,3 G, E,F, G,2- | G,2 F,E, F,2 A,2 | %48
w: bi|sed Pa- ter|me- us|qui est in|Cae- * * * *||
 G,2 F,4 E,D, | C,2 E,2 D,4 | G,4 z2 G,2 | A,2 F,2 G,4 | C,2 E,2 D,4 | C,4 z4 | z8 | z2 C2 C2 C2 | %56
w: ||lis et|E- go di-|* co ti-|bi||qui- a tu|
 A,2 B,2 C2 C,D, | E,C, F,4 G,2 | E,2 A,3 G,F,E, | F,2 G,2 C,4 | z8 | z8 | z8 | z2 C2 C2 C2 | %64
w: es Pe- * * *|||* * trus||||et su- per|
 (A,2 B,2) CB,A,G, | A,4 G,4 | z8 | z8 | z4 z2 E,2 | G,2 G,2 G,4 | E,2 C,2 (C3 B,) | A,2 G,2 A,4 | %72
w: hanc _ Pe- * * *|* tram|||ae-|di- fi- ca-|bo- ec- cle- *|si- am me-|
 G,4 z4 | z2 G,2 A,2 B,2 | C4 z2 C,2 | F,2 E,2 D,4 | z2 C,2 F,2 E,2 | D,4 z2 C,2 | C2 B,2 A,3 G, | %79
w: am."|Al- le- lu-|ia, Al-|le- lu- ia,|Al- le- lu-|ia, Al-|le- * * lu-|
 G,2 B,2 A,3 A, | G,3 G, E,2 F,2- | F,2 E,D, C,4 |] %82
w: ia, Al- le- lu-|ia, Al- le- lu-|* * * ia.|

